X:1
T:Freddie Freeloader
C:1959 - Miles Davis
Z:www.realbook.site
L:1/8
M:4/4
I:linebreak $
K:Bb
V:1 treble nm=" " snm=" "
V:1
|:"Bb7" [DG]3 [CF]- [CF]4- | [CF]6 z2 | [DG]3 [CF]- [CF]4- | [CF]6 z2 |$"Eb7" [Gc]3 [FB]- [FB]4- | %5
 [FB]6 z2 |"Bb7" [DG]3 [CF]- [CF]4- | [CF]6 [D^G]2 |1$"F7" [EA]6"E7" [D_A]2 |"Eb7" [_DG]6 F[C_G]- | %10
"Ab7" [CG]8- | [CG]6 z2 :|2$"F7" [EA]6"E7" [D_A]2 |"Eb7" [_DG]6 [CF]2 |"Bb7" [=DG]3 [CF]- [CF]4- | %15
 [CF]6 z2 |] %16

